X: 1
T: Give Thanks
C: Wm Caldwell's Union Harmony, 1837
L:1/4
M:4/4
Q:1/2=84
K:G
(DE) | G2 E G | D2 G G | B2 A B | D2 (DE) |
w: Gi-ve thanks for the corn and the wheat that are reaped, for
G2 E G | D2 G G | B2 A A | G2 B B |
w: la-bor well done and for barns that are heaped, for the
d2 B d | G2 G G | B2 A B | D2 D E |
w: sun and the dew and the sweet hon-ey-comb, for the
G2 E G | D2 G G | B2 A A | G4
w: rose and the song and the har-vest brought home.

